packages/ffe-icons/icons/open/300/md/keyboard_off.svg

<svg xmlns="http://www.w3.org/2000/svg" height="24" viewBox="0 -960 960 960" width="24"><path d="M809.386-71.693 109.694-771.385q-8.923-8.923-8.808-21.192.116-12.269 9.423-21.576 9.308-9.308 21.384-9.308 12.077 0 21.385 9.308l699.076 699.692-42.768 42.768ZM360-324.616q-14.692 0-25.038-10.153-10.346-10.154-10.346-25.231 0-14.692 10.346-25.038T360-395.384h211.231L642-324.616H360Zm499.999-343.075v373.461q0 14.999-9.423 22.499-9.423 7.5-20.577 7.5-11.153 0-20.576-7.5T800-294.23v-373.461q0-4.616-3.846-8.463-3.847-3.846-8.463-3.846H414.615q-15 0-22.499-9.423-7.5-9.423-7.5-20.576 0-11.154 7.5-20.577 7.499-9.423 22.499-9.423h373.076q30.308 0 51.308 21t21 51.308Zm-687.69 447.69q-30.308 0-51.308-21t-21-51.308v-375.382q0-30.308 21-51.308t51.308-21h54.308L286.615-680H172.309q-4.616 0-8.463 3.846-3.846 3.847-3.846 8.463v375.382q0 4.616 3.846 8.463 3.847 3.846 8.463 3.846h514.306l59.999 59.999H172.309ZM401.079-480ZM600-480Zm-360-84.616q-14.692 0-25.038-10.346T204.616-600q0-14.692 10.346-25.038T240-635.384q14.692 0 25.038 10.346T275.384-600q0 14.692-10.346 25.038T240-564.616Zm264.923-10.461-49.846-49.846q4.616-4.615 11.346-7.538 6.731-2.923 13.577-2.923 14.692 0 25.038 10.346T515.384-600q0 6.846-2.923 13.577-2.923 6.73-7.538 11.346ZM600-564.616q-14.692 0-25.038-10.346T564.616-600q0-14.692 10.346-25.038T600-635.384q14.692 0 25.038 10.346T635.384-600q0 14.692-10.346 25.038T600-564.616Zm120 0q-14.692 0-25.038-10.346T684.616-600q0-14.692 10.346-25.038T720-635.384q14.692 0 25.038 10.346T755.384-600q0 14.692-10.346 25.038T720-564.616Zm-480 120q-14.692 0-25.038-10.346T204.616-480q0-14.692 10.346-25.038T240-515.384q14.692 0 25.038 10.346T275.384-480q0 14.692-10.346 25.038T240-444.616Zm120 0q-14.692 0-25.038-10.346T324.616-480q0-14.692 10.346-25.038T360-515.384q14.692 0 25.038 10.346T395.384-480q0 14.692-10.346 25.038T360-444.616Zm264.923-10.461-49.846-49.846q4.616-4.615 11.346-7.538 6.731-2.923 13.577-2.923 14.692 0 25.038 10.346T635.384-480q0 6.846-2.923 13.577-2.923 6.73-7.538 11.346ZM720-444.616q-14.692 0-25.038-10.346T684.616-480q0-14.692 10.346-25.038T720-515.384q14.692 0 25.038 10.346T755.384-480q0 14.692-10.346 25.038T720-444.616Z"/></svg>

<svg xmlns="http://www.w3.org/2000/svg" height="24" viewBox="0 -960 960 960" width="24"><path d="m809.39-71.69-699.7-699.7q-8.92-8.92-8.8-21.19.11-12.27 9.42-21.57 9.31-9.31 21.38-9.31 12.08 0 21.39 9.31l699.07 699.69-42.76 42.77ZM360-324.62q-14.69 0-25.04-10.15-10.34-10.15-10.34-25.23 0-14.69 10.34-25.04 10.35-10.34 25.04-10.34h211.23L642-324.62H360Zm500-343.07v373.46q0 15-9.42 22.5-9.43 7.5-20.58 7.5-11.15 0-20.58-7.5-9.42-7.5-9.42-22.5v-373.46q0-4.62-3.85-8.46-3.84-3.85-8.46-3.85H414.61q-14.99 0-22.49-9.42-7.5-9.43-7.5-20.58 0-11.15 7.5-20.58 7.5-9.42 22.49-9.42h373.08Q818-740 839-719q21 21 21 51.31ZM172.31-220Q142-220 121-241q-21-21-21-51.31v-375.38Q100-698 121-719q21-21 51.31-21h54.31l60 60H172.31q-4.62 0-8.46 3.85-3.85 3.84-3.85 8.46v375.38q0 4.62 3.85 8.46 3.84 3.85 8.46 3.85h514.31l59.99 60h-574.3Zm228.77-260ZM600-480Zm-360-84.62q-14.69 0-25.04-10.34-10.34-10.35-10.34-25.04t10.34-25.04q10.35-10.34 25.04-10.34t25.04 10.34q10.34 10.35 10.34 25.04t-10.34 25.04q-10.35 10.34-25.04 10.34Zm264.92-10.46-49.84-49.84q4.61-4.62 11.34-7.54 6.73-2.92 13.58-2.92 14.69 0 25.04 10.34 10.34 10.35 10.34 25.04 0 6.85-2.92 13.58t-7.54 11.34ZM600-564.62q-14.69 0-25.04-10.34-10.34-10.35-10.34-25.04t10.34-25.04q10.35-10.34 25.04-10.34t25.04 10.34q10.34 10.35 10.34 25.04t-10.34 25.04q-10.35 10.34-25.04 10.34Zm120 0q-14.69 0-25.04-10.34-10.34-10.35-10.34-25.04t10.34-25.04q10.35-10.34 25.04-10.34t25.04 10.34q10.34 10.35 10.34 25.04t-10.34 25.04q-10.35 10.34-25.04 10.34Zm-480 120q-14.69 0-25.04-10.34-10.34-10.35-10.34-25.04t10.34-25.04q10.35-10.34 25.04-10.34t25.04 10.34q10.34 10.35 10.34 25.04t-10.34 25.04q-10.35 10.34-25.04 10.34Zm120 0q-14.69 0-25.04-10.34-10.34-10.35-10.34-25.04t10.34-25.04q10.35-10.34 25.04-10.34t25.04 10.34q10.34 10.35 10.34 25.04t-10.34 25.04q-10.35 10.34-25.04 10.34Zm264.92-10.46-49.84-49.84q4.61-4.62 11.34-7.54 6.73-2.92 13.58-2.92 14.69 0 25.04 10.34 10.34 10.35 10.34 25.04 0 6.85-2.92 13.58t-7.54 11.34ZM720-444.62q-14.69 0-25.04-10.34-10.34-10.35-10.34-25.04t10.34-25.04q10.35-10.34 25.04-10.34t25.04 10.34q10.34 10.35 10.34 25.04t-10.34 25.04q-10.35 10.34-25.04 10.34Z"/></svg>
